pro/src/icons/stroke-thing.svg

<svg width="48" height="48" viewBox="0 0 48 48" fill="none" xmlns="http://www.w3.org/2000/svg">
<path id="icon" fill-rule="evenodd" clip-rule="evenodd"  d="M23.5711 6.06868L19.2113 7.52825C18.6875 7.70362 18.1207 7.42123 17.9452 6.89753C17.7698 6.37383 18.0523 5.80712 18.5761 5.63175L22.9385 4.17132C23.6239 3.94289 24.3761 3.94289 25.0615 4.17132L25.0637 4.17205L41.8289 9.80239C43.097 10.2297 44 11.391 44 12.75V35.25C44 36.609 43.097 37.7703 41.8289 38.1976L25.0615 43.8287C24.3761 44.0571 23.6239 44.0571 22.9385 43.8287L6.1716 38.1878C4.90352 37.7604 4 36.599 4 35.24V12.74C4 11.381 4.90304 10.2197 6.17112 9.79239L13.2537 7.41212C13.7773 7.23614 14.3445 7.51787 14.5205 8.04136C14.6965 8.56486 14.4147 9.1319 13.8911 9.30788L7.39832 11.4899L18.4974 15.2174L23.5711 16.9213L23.5721 16.9217C23.8463 17.0128 24.1536 17.0128 24.4278 16.9217L24.4289 16.9213L37.41 12.5621C37.9336 12.3862 38.5007 12.6681 38.6766 13.1916C38.8525 13.7151 38.5706 14.2821 38.0469 14.458L25.0637 18.818L25.0615 18.8187C24.3761 19.0471 23.624 19.0471 22.9385 18.8187L22.9363 18.818L17.511 16.996L6.17213 13.188C6.11157 13.1676 6.05425 13.1421 6.0005 13.1119V35.24C6.0005 35.6809 6.29757 36.1194 6.80964 36.2922L23.0047 41.7408V22.12C23.0047 21.5677 23.4526 21.12 24.005 21.12C24.5574 21.12 25.0052 21.5677 25.0052 22.12V41.7378L41.1899 36.3024C41.7022 36.1297 41.9995 35.691 41.9995 35.25V12.75C41.9995 12.3091 41.7024 11.8705 41.1902 11.6977L24.4289 6.06868L24.4279 6.06837C24.1536 5.97717 23.8455 5.9774 23.5711 6.06868Z" fill="currentColor"/>
</svg>

<svg xmlns="http://www.w3.org/2000/svg" width="48" height="48" fill="none"><path id="icon" fill="currentColor" fill-rule="evenodd" d="m23.571 6.069-4.36 1.46a1 1 0 0 1-.635-1.897l4.363-1.46a3.37 3.37 0 0 1 2.122 0h.003l16.765 5.63C43.097 10.23 44 11.391 44 12.75v22.5c0 1.359-.903 2.52-2.171 2.948l-16.768 5.63a3.38 3.38 0 0 1-2.122 0l-16.767-5.64C4.904 37.76 4 36.599 4 35.24v-22.5c0-1.359.903-2.52 2.171-2.948l7.083-2.38a1 1 0 0 1 .637 1.896L7.398 11.49l11.1 3.727 5.073 1.704h.001c.274.092.582.092.856 0l12.982-4.359a1 1 0 0 1 .637 1.896l-12.983 4.36h-.003a3.38 3.38 0 0 1-2.122 0h-.003l-5.425-1.822-11.339-3.808a1 1 0 0 1-.171-.076V35.24c0 .44.297.88.809 1.052l16.195 5.449V22.12a1 1 0 0 1 2 0v19.618l16.185-5.436c.512-.172.81-.611.81-1.052v-22.5c0-.44-.298-.88-.81-1.052L24.43 6.068h-.001a1.38 1.38 0 0 0-.857 0" clip-rule="evenodd"/></svg>
